Papirus/24x24/status/changes-allow.svg

<svg xmlns="http://www.w3.org/2000/svg" width="24" height="24" version="1">
 <path style="opacity:0.2" d="m 12,2.5 c -2.982464,0 -5.4359589,2.1562262 -5.9101562,5 H 8.1386719 C 8.5823641,5.7737034 10.13145,4.5 12,4.5 c 2.216,0 4,1.784 4,4 v 2 h 2 v -2 c 0,-3.324 -2.676,-6 -6,-6 z"/>
 <path style="fill:#d2d2d2" d="M 12 2 C 9.017536 2 6.5640411 4.1562262 6.0898438 7 L 8.1386719 7 C 8.5823641 5.2737034 10.13145 4 12 4 C 14.216 4 16 5.784 16 8 L 16 10 L 18 10 L 18 8 C 18 4.676 15.324 2 12 2 z"/>
 <rect style="fill:#fe3c38" width="12" height="16" x="-22" y="-20" rx="1" ry="1" transform="matrix(0,-1,-1,0,0,0)"/>
 <path style="opacity:0.2;fill:#ffffff" d="M 12 2 C 9.017536 2 6.5640411 4.1562262 6.0898438 7 L 6.1953125 7 C 6.8591229 4.4080099 9.195375 2.5 12 2.5 C 15.324 2.5 18 5.176 18 8.5 L 18 8 C 18 4.676 15.324 2 12 2 z"/>
 <path style="opacity:0.2;fill:#ffffff" d="m 5,10 c -0.554,0 -1,0.446 -1,1 v 0.5 c 0,-0.554 0.446,-1 1,-1 h 14 c 0.554,0 1,0.446 1,1 V 11 c 0,-0.554 -0.446,-1 -1,-1 z"/>
 <rect style="fill:#fe6a6a" width="16" height="7" x="4" y="12" rx="0" ry="0"/>
 <path style="opacity:0.2" d="m 4,21 v 0.5 c 0,0.554 0.446,1 1,1 h 14 c 0.554,0 1,-0.446 1,-1 V 21 c 0,0.554 -0.446,1 -1,1 H 5 C 4.446,22 4,21.554 4,21 Z"/>
</svg>

<svg xmlns="http://www.w3.org/2000/svg" width="24" height="24" version="1">
 <path style="opacity:0.2" d="M 12,2.5 C 9.0175,2.5 6.564,4.6562 6.0898,7.5 H 8.1387 C 8.5824,5.7737 10.131,4.5 12,4.5 14.216,4.5 16,6.284 16,8.5 V 10.5 H 18 V 8.5 C 18,5.176 15.324,2.5 12,2.5 Z"/>
 <path style="fill:#d2d2d2" d="M 12,2 C 9.0175,2 6.564,4.1562 6.0898,7 H 8.1387 C 8.5824,5.2737 10.131,4 12,4 14.216,4 16,5.784 16,8 V 10 H 18 V 8 C 18,4.676 15.324,2 12,2 Z"/>
 <rect style="fill:#fe3c38" width="12" height="16" x="-22" y="-20" rx="1" ry="1" transform="matrix(0,-1,-1,0,0,0)"/>
 <path style="opacity:0.2;fill:#ffffff" d="M 12,2 C 9.0175,2 6.564,4.1562 6.0898,7 H 6.1953 C 6.8591,4.408 9.1954,2.5 12,2.5 15.324,2.5 18,5.176 18,8.5 V 8 C 18,4.676 15.324,2 12,2 Z"/>
 <path style="opacity:0.2;fill:#ffffff" d="M 5,10 C 4.446,10 4,10.446 4,11 V 11.5 C 4,10.946 4.446,10.5 5,10.5 H 19 C 19.554,10.5 20,10.946 20,11.5 V 11 C 20,10.446 19.554,10 19,10 Z"/>
 <rect style="fill:#fe6a6a" width="16" height="7" x="4" y="12" rx="0" ry="0"/>
 <path style="opacity:0.2" d="M 4,21 V 21.5 C 4,22.054 4.446,22.5 5,22.5 H 19 C 19.554,22.5 20,22.054 20,21.5 V 21 C 20,21.554 19.554,22 19,22 H 5 C 4.446,22 4,21.554 4,21 Z"/>
 <path style="opacity:0.1;fill:#ffffff" d="M 4,19.5 V 20.5 C 4,21.054 4.446,21.5 5,21.5 H 19 C 19.554,21.5 20,21.054 20,20.5 V 19.5 C 20,20.054 19.554,20.5 19,20.5 H 5 C 4.446,20.5 4,20.054 4,19.5 Z"/>
 <path style="fill:#d4001b" d="M 4,20 V 21 C 4,21.554 4.446,22 5,22 H 19 C 19.554,22 20,21.554 20,21 V 20 C 20,20.554 19.554,21 19,21 H 5 C 4.446,21 4,20.554 4,20 Z"/>
</svg>
